X: 22
T: Master Crowley's
Z: RobSheldrick
S: https://thesession.org/tunes/281#setting52569
R: reel
M: 4/4
L: 1/8
K: Ddor
|:A,2DD A,DED|DCA,C G,CEC|A,DFD CFGF|EcGE EDDC:|
|:Dafa eadf|ecgc acge|dafa eadB|cAG_B ADDC|
Dafa eadf|ecgc acge|DEFG AGAc|GECD E/F/EDC:|

